X:1     
B:Broadwood, L, 1893, English County Songs, London, Leadenhall Press
S:Mr Heywood Sumner
Z: Lucy Broadwood
T:The Reaphook and the Sickle
F: http://www.folkinfo.org/songs
M:6/8     %Meter
L:1/8     %
K:F
c |(c d) c (B A) G |(F2 A) C2 C |F2 F G2 G |A3- A z
w:Come all_ you lads_ and lass--es, to-geth-er let us go *
  c |c2 C C2 c |c3 C2 G |(GA) G (FE) D | C3 z
w:In-to some plea-sant corn-field our cour--age for_ to show;
     F A |c2 F (FA) c |c3 F2 c |d2 f (fe) d |c3 z2
w:      With the reap-hook and_ the sic-kle so well we clear_ the land, *
      c |f2 f e2 f |d2 c (B A) G |C C C D2 E | (F3F2) z |]
w:The farm-er says, "Well done, my lads,_ here's li-quor at your com-mand *